X:1
T:Jesus, Jesus, Nichts als Jesus, 87.87.77
T:Jesus, Jesus, Nichts als Jesus, 87.87.77
T:Vollkommenes Choralbuch (Hambur
T:Public Domain Courtesy of the Cyber Hymnal™
C:Vollkommenes Choralbuch (Hambur
Z:Public Domain
Z:Courtesy of the Cyber Hymnal™
%%score ( 1 2 ) ( 3 4 )
L:1/8
Q:1/4=112
M:4/4
K:D
V:1 treble 
V:2 treble 
V:3 bass 
V:4 bass 
V:1
 [A,D]2 [B,D]2 [A,A]2 [DA]2 | [DB]2 [Gc]2 [Fd]2 [FA]2 | [GB]2 [FA]2 [EG]2 [DF]2 | [DE]2 [CE]2 D4 | %4
 [A,D]2 [B,D]2 [A,A]2 [DA]2 | [DB]2 [Gc]2 [Fd]2 [FA]2 | [GB]2 [FA]2 [EG]2 [DF]2 | [DE]2 [CE]2 D4 | %8
 [DF]2 [DF]2 [B,E]2 [EA]2 | [FA]2 [E^G]2 [EA]4 | [Dd]2 [DA]2 ([DB][Gc]) [Fd]2 | %11
 [Ed]2 [Ec]2 [Fd]4 |] %12
V:2
 x8 | x8 | x8 | x4 D4 | x8 | x8 | x8 | x4 D4 | x8 | x8 | x8 | x8 |] %12
V:3
 [D,F,]2 [B,,F,]2 [C,E,]2 [D,F,]2 | G,2 [E,A,]2 [D,A,]2 [D,D]2 | [G,D]2 [D,D]2 [E,B,]2 [B,,B,]2 | %3
 [G,,B,]2 [A,,A,]2 [D,F,]4 | [D,F,]2 [B,,F,]2 [C,E,]2 [D,F,]2 | G,2 [E,A,]2 [D,A,]2 [D,D]2 | %6
 [G,D]2 [D,D]2 [E,B,]2 [B,,B,]2 | [G,,B,]2 [A,,A,]2 [D,F,]4 | [D,A,]2 [B,,B,]2 [E,^G,]2 [C,A,]2 | %9
 [D,D]2 [E,B,]2 [A,,C]4 | [B,,F,]2 [F,A,]2 G,2 [D,A,]2 | [G,B,]2 A,2 [D,A,]4 |] %12
V:4
 x8 | G,2 x6 | x8 | x8 | x8 | G,2 x6 | x8 | x8 | x8 | x8 | x4 (G,E,) x2 | x2 A,2 x4 |] %12

